X:100
T:Garravane Slide, The
R:slide
Z:id:hn-slide-100
M:6/8
L:1/8
K:G
~G3 AGE | G2E D2B | d2B AGA | B2A ABA |
~G3 AGE | G2E D2B | d2B ABA |1 G3 G2D :|2 G3 GAB ||
|: c3 cBA | B3 BAG | A3 ABc | d3 B2A |
~G3 AGE | G2E D2B | d2B ABA |1 G3 GAB :|2 G3 G2D ||

